X: 3141
T: Licno Stojne
O: Macedonia
F: https://www.youtube.com/watch?v=AQmXH_AOqME
F: https://www.youtube.com/watch?v=7fYXM2O-27A
F: https://www.youtube.com/watch?v=Qoj9zodewvs
M: 5/8
L: 1/8
K: Em
Q: 1/4=104
%%MIDI program 110 Fiddle
%%MIDI bassprog 45
%%MIDI bassvol 50
%%MIDI gchord fzfz2
"D"D2 D3    |"Em"E2 F2E|"D"D2 E2D|"Em"C2 B,3 |\
E2 E3       |F2 G3     |F2 E3    |"D"D4z     |:
"Em"E2 E3   |F2 G3     |F2 ED2   |"D"D4z     |\
"Em"D2 CB,A,|"D"DE F3  |D2 CDC   |"G"B,2-B,3 :|





